X: 20868
T: Jolly Pigeons, The
R: reel
M: 4/4
K: Edorian
EFGA Bded|~B3A BcdB|AF~F2 DF~F2|AFBF AFGF|
EFGA Bded|~B3A Bcde|fedB AF~F2|BFAF DFAF:|
|:Beed e2de|fedc Bcde|f2de fgag|fedc BAFA|
Beed e2de|fedc Bcde|fedB AF~F2|BFAF DFAF:|

